groups/nitrogen/oxopropanamide.svg

<?xml version='1.0' encoding='iso-8859-1'?>
<svg version='1.1' baseProfile='full'
              xmlns='http://www.w3.org/2000/svg'
                      xmlns:rdkit='http://www.rdkit.org/xml'
                      xmlns:xlink='http://www.w3.org/1999/xlink'
                  xml:space='preserve'
width='256px' height='256px' viewBox='0 0 256 256'>
<!-- END OF HEADER -->
<rect style='opacity:1.0;fill:#FFFFFF;stroke:none' width='256.0' height='256.0' x='0.0' y='0.0'> </rect>
<path class='bond-0 atom-0 atom-1' d='M 230.0,105.7 L 185.8,131.3' style='fill:none;fill-rule:evenodd;stroke:#000000;stroke-width:2.0px;stroke-linecap:butt;stroke-linejoin:miter;stroke-opacity:1' />
<path class='bond-1 atom-1 atom-2' d='M 181.9,129.1 L 182.0,171.6' style='fill:none;fill-rule:evenodd;stroke:#000000;stroke-width:2.0px;stroke-linecap:butt;stroke-linejoin:miter;stroke-opacity:1' />
<path class='bond-1 atom-1 atom-2' d='M 189.6,129.1 L 189.6,171.5' style='fill:none;fill-rule:evenodd;stroke:#000000;stroke-width:2.0px;stroke-linecap:butt;stroke-linejoin:miter;stroke-opacity:1' />
<path class='bond-2 atom-1 atom-3' d='M 185.8,131.3 L 141.5,105.8' style='fill:none;fill-rule:evenodd;stroke:#000000;stroke-width:2.0px;stroke-linecap:butt;stroke-linejoin:miter;stroke-opacity:1' />
<path class='bond-3 atom-3 atom-4' d='M 145.3,108.0 L 145.3,71.7' style='fill:none;fill-rule:evenodd;stroke:#000000;stroke-width:2.0px;stroke-linecap:butt;stroke-linejoin:miter;stroke-opacity:1' />
<path class='bond-3 atom-3 atom-4' d='M 137.7,108.0 L 137.6,71.7' style='fill:none;fill-rule:evenodd;stroke:#000000;stroke-width:2.0px;stroke-linecap:butt;stroke-linejoin:miter;stroke-opacity:1' />
<path class='bond-4 atom-3 atom-5' d='M 141.5,105.8 L 108.1,125.1' style='fill:none;fill-rule:evenodd;stroke:#000000;stroke-width:2.0px;stroke-linecap:butt;stroke-linejoin:miter;stroke-opacity:1' />
<path class='bond-5 atom-5 atom-6' d='M 86.4,125.1 L 63.9,112.2' style='fill:none;fill-rule:evenodd;stroke:#000000;stroke-width:2.0px;stroke-linecap:butt;stroke-linejoin:miter;stroke-opacity:1' />
<path class='bond-6 atom-5 atom-7' d='M 97.3,148.4 L 97.3,171.6' style='fill:none;fill-rule:evenodd;stroke:#000000;stroke-width:2.0px;stroke-linecap:butt;stroke-linejoin:miter;stroke-opacity:1' />
<path d='M 188.0,130.1 L 185.8,131.3 L 183.5,130.1' style='fill:none;stroke:#000000;stroke-width:2.0px;stroke-linecap:butt;stroke-linejoin:miter;stroke-miterlimit:10;stroke-opacity:1;' />
<path d='M 143.7,107.1 L 141.5,105.8 L 139.8,106.8' style='fill:none;stroke:#000000;stroke-width:2.0px;stroke-linecap:butt;stroke-linejoin:miter;stroke-miterlimit:10;stroke-opacity:1;' />
<path class='atom-1' d='M217.211,83.6185 C215.553,84.578 216.832,86.79 218.491,85.8304 C220.15,84.8708 221.429,87.0828 219.77,88.0423 C218.111,89.0019 219.391,91.2138 221.05,90.2542 C222.709,89.2947 223.988,91.5066 222.329,92.4661 C220.67,93.4257 221.95,95.6376 223.609,94.6781 C225.268,93.7185 226.547,95.9304 224.888,96.89 C223.229,97.8495 224.509,100.061 226.167,99.1019 C227.826,98.1423 229.106,100.354 227.447,101.314 C225.788,102.273 227.067,104.485 228.726,103.526 C230.385,102.566 231.665,104.778 230.006,105.738 C228.347,106.697 229.626,108.909 231.285,107.95 C232.944,106.99 234.224,109.202 232.565,110.161 C230.906,111.121 232.185,113.333 233.844,112.373 C235.503,111.414 236.782,113.626 235.123,114.585 C233.465,115.545 234.744,117.757 236.403,116.797 C238.062,115.838 239.341,118.05 237.682,119.009 C236.023,119.969 237.303,122.181 238.962,121.221 C240.621,120.261 241.9,122.473 240.241,123.433 C238.582,124.393 239.862,126.604 241.521,125.645 C243.179,124.685 244.459,126.897 242.8,127.857' style='fill:none;stroke:#7F7F7F;stroke-width:2.0px;stroke-linecap:butt;stroke-linejoin:miter;stroke-opacity:1' />
<text x='176.6' y='197.8' class='atom-2' style='font-size:30px;font-style:normal;font-weight:normal;fill-opacity:1;stroke:none;font-family:sans-serif;text-anchor:start;fill:#000000' >O</text>
<text x='132.3' y='70.0' class='atom-4' style='font-size:30px;font-style:normal;font-weight:normal;fill-opacity:1;stroke:none;font-family:sans-serif;text-anchor:start;fill:#000000' >O</text>
<text x='88.0' y='146.7' class='atom-5' style='font-size:30px;font-style:normal;font-weight:normal;fill-opacity:1;stroke:none;font-family:sans-serif;text-anchor:start;fill:#000000' >N</text>
<text x='12.8' y='121.2' class='atom-6' style='font-size:30px;font-style:normal;font-weight:normal;fill-opacity:1;stroke:none;font-family:sans-serif;text-anchor:start;fill:#000000' >H</text>
<text x='34.0' y='133.5' class='atom-6' style='font-size:20px;font-style:normal;font-weight:normal;fill-opacity:1;stroke:none;font-family:sans-serif;text-anchor:start;fill:#000000' >3</text>
<text x='43.8' y='121.2' class='atom-6' style='font-size:30px;font-style:normal;font-weight:normal;fill-opacity:1;stroke:none;font-family:sans-serif;text-anchor:start;fill:#000000' >C</text>
<text x='88.1' y='197.8' class='atom-7' style='font-size:30px;font-style:normal;font-weight:normal;fill-opacity:1;stroke:none;font-family:sans-serif;text-anchor:start;fill:#000000' >C</text>
<text x='109.2' y='197.8' class='atom-7' style='font-size:30px;font-style:normal;font-weight:normal;fill-opacity:1;stroke:none;font-family:sans-serif;text-anchor:start;fill:#000000' >H</text>
<text x='130.4' y='210.1' class='atom-7' style='font-size:20px;font-style:normal;font-weight:normal;fill-opacity:1;stroke:none;font-family:sans-serif;text-anchor:start;fill:#000000' >3</text>
</svg>

<svg height="256" viewBox="0 0 256 256" width="256" xmlns="http://www.w3.org/2000/svg"><path d="m0 0h256v256h-256z" fill="#fff"/><g fill="none" stroke-width="2"><path d="m230 105.7-44.2 25.6" stroke="#000"/><path d="m181.9 129.1.1 42.5" stroke="#000"/><path d="m189.6 129.1v42.4" stroke="#000"/><path d="m185.8 131.3-44.3-25.5" stroke="#000"/><path d="m145.3 108v-36.3" stroke="#000"/><path d="m137.7 108-.1-36.3" stroke="#000"/><path d="m141.5 105.8-33.4 19.3" stroke="#000"/><path d="m86.4 125.1-22.5-12.9" stroke="#000"/><path d="m97.3 148.4v23.2" stroke="#000"/><path d="m188 130.1-2.2 1.2-2.3-1.2" stroke="#000" stroke-miterlimit="10"/><path d="m143.7 107.1-2.2-1.3-1.7 1" stroke="#000" stroke-miterlimit="10"/><path d="m217.211 83.619c-1.658.959-.379 3.171 1.28 2.211 1.659-.959 2.938 1.253 1.279 2.212-1.659.96-.379 3.172 1.28 2.212 1.659-.959 2.938 1.253 1.279 2.212-1.659.96-.379 3.172 1.28 2.212 1.659-.959 2.938 1.252 1.279 2.212s-.379 3.171 1.279 2.212c1.659-.96 2.939 1.252 1.28 2.212-1.659.959-.38 3.171 1.279 2.212 1.659-.96 2.939 1.252 1.28 2.212-1.659.959-.38 3.171 1.279 2.212 1.659-.96 2.939 1.252 1.28 2.211-1.659.96-.38 3.172 1.279 2.212 1.659-.959 2.938 1.253 1.279 2.212-1.658.96-.379 3.172 1.28 2.212 1.659-.959 2.938 1.253 1.279 2.212-1.659.96-.379 3.172 1.28 2.212s2.938 1.252 1.279 2.212-.379 3.171 1.28 2.212c1.658-.96 2.938 1.252 1.279 2.212" stroke="#7f7f7f"/></g><text font-family="sans-serif" font-size="30" x="176.6" y="197.8">O</text><text font-family="sans-serif" font-size="30" x="132.3" y="70">O</text><text font-family="sans-serif" font-size="30" x="88" y="146.7">N</text><text font-family="sans-serif" font-size="30" x="12.8" y="121.2">H</text><text font-family="sans-serif" font-size="20" x="34" y="133.5">3</text><text font-family="sans-serif" font-size="30" x="43.8" y="121.2">C</text><text font-family="sans-serif" font-size="30" x="88.1" y="197.8">C</text><text font-family="sans-serif" font-size="30" x="109.2" y="197.8">H</text><text font-family="sans-serif" font-size="20" x="130.4" y="210.1">3</text></svg>
